X: 14
T:Wildwood Flower
M:4/4
L:1/8
C:
S:ABB form
R:Key of D
K:D
|z2z2F2G2|A2AAB2d2|F2FFG2F2|E2EEF2E2|D2DDF2G2|A2AAB2d2|F2FFG2F2|E2EEF2E2
|D2DDA2d2||:f2fff2e2|d2ddA2A2|B2BBd2B2|A2AAD2E2|F2FFF2E2|F2A2A2F2|E2E2F2
E2|1D4F2A2:|2D4z4||
